static/assets/images/exchanges/trubit.svg

<svg width="276" height="256" viewBox="0 0 276 256" fill="none" xmlns="http://www.w3.org/2000/svg">
<path fill-rule="evenodd" clip-rule="evenodd" d="M213.137 256H88.8033L110.248 219.794L234.819 219.986L213.137 256ZM103.06 97.0971L40.8935 203.886L61.506 240.512L123.965 133.632L103.06 97.1063V97.0971ZM63.1155 27.7029L0.958008 134.491L21.5705 171.109L84.0297 64.2286L63.1246 27.712L63.1155 27.7029ZM129.434 186.999H253.776L275.459 150.985L150.888 150.802L129.434 187.008V186.999ZM213.365 12.8731L275.532 119.653L258.239 119.525L266.744 134.875L255.898 134.72L247.338 119.442L233.191 119.333L171.07 12.2606L187.421 12.4983L180.718 0.539429L192.323 0.484571L199.063 12.6629L213.365 12.8731ZM179.511 119.141L187.961 134.391L177.115 134.235L168.61 119.058L152.607 118.939L90.486 11.8583L108.702 12.1326L101.935 0.0548571L113.549 0L120.353 12.2971L132.79 12.48L194.966 119.25L179.511 119.141Z" fill="#33D130"/>
</svg>

<svg xmlns="http://www.w3.org/2000/svg" fill="none" viewBox="0 0 276 256"><path fill="#33D130" fill-rule="evenodd" d="M213.137 256H88.803l21.445-36.206 124.571.192zM103.06 97.097 40.894 203.886l20.612 36.626 62.459-106.88-20.905-36.526zM63.115 27.703.959 134.49l20.613 36.618L84.03 64.229 63.125 27.712zm66.319 159.296h124.342l21.683-36.014-124.571-.183-21.454 36.206zm83.931-174.126 62.167 106.78-17.293-.128 8.505 15.35-10.846-.155-8.56-15.278-14.147-.109L171.07 12.261l16.351.237L180.718.54l11.605-.054 6.74 12.178zm-33.854 106.268 8.45 15.25-10.846-.156-8.505-15.177-16.003-.119-62.121-107.08 18.216.274L101.935.055 113.549 0l6.804 12.297 12.437.183 62.176 106.77z" clip-rule="evenodd"/></svg>
